images/strength-icon.svg

<svg xmlns="http://www.w3.org/2000/svg" xmlns:xlink="http://www.w3.org/1999/xlink" width="95" zoomAndPan="magnify" viewBox="0 0 71.25 71.25" height="95" preserveAspectRatio="xMidYMid meet" version="1.0"><defs><clipPath id="9197445c2c"><path d="M 43 43 L 69.765625 43 L 69.765625 69.765625 L 43 69.765625 Z M 43 43 " clip-rule="nonzero"/></clipPath><clipPath id="e428ffe523"><path d="M 43 43 L 69.765625 43 L 69.765625 69.765625 L 43 69.765625 Z M 43 43 " clip-rule="nonzero"/></clipPath></defs><path fill="#012430" d="M 13.261719 4.550781 L 4.257812 13.550781 L 3.15625 12.449219 C 2.859375 12.148438 2.628906 11.804688 2.46875 11.414062 C 2.308594 11.023438 2.226562 10.617188 2.226562 10.191406 C 2.226562 9.769531 2.308594 9.363281 2.46875 8.972656 C 2.628906 8.582031 2.859375 8.234375 3.15625 7.933594 L 7.648438 3.449219 C 7.949219 3.148438 8.292969 2.917969 8.683594 2.757812 C 9.074219 2.59375 9.480469 2.515625 9.902344 2.515625 C 10.328125 2.515625 10.734375 2.59375 11.125 2.757812 C 11.515625 2.917969 11.859375 3.148438 12.15625 3.449219 Z M 13.261719 4.550781 " fill-opacity="1" fill-rule="nonzero"/><path fill="#012430" d="M 20.296875 29.589844 L 29.296875 20.589844 L 49.269531 40.558594 L 40.269531 49.5625 Z M 20.296875 29.589844 " fill-opacity="1" fill-rule="nonzero"/><path fill="#012430" d="M 26.238281 4.539062 L 4.253906 26.523438 C 4.246094 26.523438 4.238281 26.515625 4.230469 26.507812 L 0.855469 23.132812 C 0.28125 22.5625 -0.00390625 21.875 0 21.066406 C 0 20.253906 0.289062 19.558594 0.871094 18.988281 L 18.703125 1.152344 C 18.976562 0.878906 19.292969 0.664062 19.652344 0.515625 C 20.007812 0.367188 20.382812 0.289062 20.769531 0.289062 C 21.15625 0.289062 21.53125 0.359375 21.890625 0.507812 C 22.25 0.65625 22.566406 0.863281 22.839844 1.136719 L 26.226562 4.523438 Z M 26.238281 4.539062 " fill-opacity="1" fill-rule="nonzero"/><path fill="#012430" d="M 66.414062 62.214844 L 61.929688 66.707031 C 61.628906 67.003906 61.28125 67.234375 60.890625 67.394531 C 60.5 67.554688 60.09375 67.632812 59.671875 67.632812 C 59.25 67.632812 58.839844 67.554688 58.449219 67.394531 C 58.058594 67.234375 57.714844 67.003906 57.414062 66.707031 L 56.3125 65.605469 L 65.3125 56.605469 L 66.414062 57.707031 C 66.714844 58.003906 66.945312 58.347656 67.105469 58.738281 C 67.269531 59.128906 67.347656 59.539062 67.347656 59.960938 C 67.347656 60.382812 67.269531 60.789062 67.105469 61.179688 C 66.945312 61.570312 66.714844 61.914062 66.414062 62.214844 Z M 66.414062 62.214844 " fill-opacity="1" fill-rule="nonzero"/><g clip-path="url(#9197445c2c)"><path fill="#012430" d="M 68.710938 51.160156 L 50.878906 68.996094 C 50.601562 69.273438 50.285156 69.484375 49.921875 69.632812 C 49.5625 69.785156 49.1875 69.859375 48.796875 69.859375 C 48.40625 69.859375 48.03125 69.785156 47.671875 69.632812 C 47.3125 69.484375 46.992188 69.273438 46.71875 68.996094 L 43.355469 65.632812 C 43.34375 65.621094 43.332031 65.609375 43.324219 65.597656 L 65.3125 43.609375 L 68.710938 47.007812 C 68.988281 47.285156 69.199219 47.601562 69.347656 47.960938 C 69.496094 48.320312 69.570312 48.695312 69.570312 49.085938 C 69.570312 49.476562 69.496094 49.847656 69.347656 50.207031 C 69.199219 50.570312 68.988281 50.886719 68.710938 51.160156 Z M 68.710938 51.160156 " fill-opacity="1" fill-rule="nonzero"/></g><path fill="#012430" d="M 37.875 9.957031 L 9.671875 38.160156 C 9.101562 38.738281 8.410156 39.03125 7.601562 39.039062 L 7.5625 39.039062 C 6.761719 39.042969 6.082031 38.761719 5.519531 38.191406 L 2.148438 34.828125 C 1.574219 34.25 1.289062 33.554688 1.296875 32.742188 C 1.300781 31.925781 1.589844 31.230469 2.164062 30.65625 L 30.367188 2.449219 C 30.644531 2.175781 30.960938 1.964844 31.320312 1.816406 C 31.679688 1.664062 32.054688 1.589844 32.445312 1.589844 C 32.835938 1.589844 33.207031 1.664062 33.570312 1.816406 C 33.929688 1.964844 34.246094 2.175781 34.519531 2.449219 L 37.890625 5.820312 C 38.164062 6.09375 38.378906 6.410156 38.527344 6.769531 C 38.675781 7.128906 38.746094 7.503906 38.746094 7.890625 C 38.746094 8.28125 38.667969 8.652344 38.519531 9.011719 C 38.367188 9.371094 38.152344 9.683594 37.875 9.957031 Z M 37.875 9.957031 " fill-opacity="1" fill-rule="nonzero"/><path fill="#012430" d="M 68.265625 37.410156 C 68.261719 38.21875 67.976562 38.910156 67.402344 39.480469 L 39.195312 67.683594 C 38.613281 68.265625 37.910156 68.558594 37.085938 68.5625 C 36.285156 68.5625 35.601562 68.28125 35.035156 67.714844 L 31.660156 64.328125 C 31.082031 63.757812 30.796875 63.0625 30.8125 62.25 C 30.816406 61.4375 31.109375 60.746094 31.6875 60.175781 L 59.890625 31.972656 C 60.164062 31.699219 60.480469 31.484375 60.839844 31.335938 C 61.195312 31.1875 61.570312 31.109375 61.957031 31.109375 C 62.347656 31.109375 62.71875 31.179688 63.078125 31.328125 C 63.4375 31.476562 63.753906 31.683594 64.03125 31.957031 L 67.414062 35.34375 C 67.988281 35.910156 68.273438 36.601562 68.265625 37.410156 Z M 68.265625 37.410156 " fill-opacity="1" fill-rule="nonzero"/><path fill="#012430" d="M 13.261719 4.550781 L 4.257812 13.550781 L 3.15625 12.449219 C 2.859375 12.148438 2.628906 11.804688 2.46875 11.414062 C 2.308594 11.023438 2.226562 10.617188 2.226562 10.191406 C 2.226562 9.769531 2.308594 9.363281 2.46875 8.972656 C 2.628906 8.582031 2.859375 8.234375 3.15625 7.933594 L 7.648438 3.449219 C 7.949219 3.148438 8.292969 2.917969 8.683594 2.757812 C 9.074219 2.59375 9.480469 2.515625 9.902344 2.515625 C 10.328125 2.515625 10.734375 2.59375 11.125 2.757812 C 11.515625 2.917969 11.859375 3.148438 12.15625 3.449219 Z M 13.261719 4.550781 " fill-opacity="1" fill-rule="nonzero"/><path fill="#012430" d="M 20.296875 29.589844 L 29.296875 20.589844 L 49.269531 40.558594 L 40.269531 49.5625 Z M 20.296875 29.589844 " fill-opacity="1" fill-rule="nonzero"/><path fill="#012430" d="M 26.238281 4.539062 L 4.253906 26.523438 C 4.246094 26.523438 4.238281 26.515625 4.230469 26.507812 L 0.855469 23.132812 C 0.28125 22.5625 -0.00390625 21.875 0 21.066406 C 0 20.253906 0.289062 19.558594 0.871094 18.988281 L 18.703125 1.152344 C 18.976562 0.878906 19.292969 0.664062 19.652344 0.515625 C 20.007812 0.367188 20.382812 0.289062 20.769531 0.289062 C 21.15625 0.289062 21.53125 0.359375 21.890625 0.507812 C 22.25 0.65625 22.566406 0.863281 22.839844 1.136719 L 26.226562 4.523438 Z M 26.238281 4.539062 " fill-opacity="1" fill-rule="nonzero"/><path fill="#012430" d="M 66.414062 62.214844 L 61.929688 66.707031 C 61.628906 67.003906 61.28125 67.234375 60.890625 67.394531 C 60.5 67.554688 60.09375 67.632812 59.671875 67.632812 C 59.25 67.632812 58.839844 67.554688 58.449219 67.394531 C 58.058594 67.234375 57.714844 67.003906 57.414062 66.707031 L 56.3125 65.605469 L 65.3125 56.605469 L 66.414062 57.707031 C 66.714844 58.003906 66.945312 58.347656 67.105469 58.738281 C 67.269531 59.128906 67.347656 59.539062 67.347656 59.960938 C 67.347656 60.382812 67.269531 60.789062 67.105469 61.179688 C 66.945312 61.570312 66.714844 61.914062 66.414062 62.214844 Z M 66.414062 62.214844 " fill-opacity="1" fill-rule="nonzero"/><g clip-path="url(#e428ffe523)"><path fill="#012430" d="M 68.710938 51.160156 L 50.878906 68.996094 C 50.601562 69.273438 50.285156 69.484375 49.921875 69.632812 C 49.5625 69.785156 49.1875 69.859375 48.796875 69.859375 C 48.40625 69.859375 48.03125 69.785156 47.671875 69.632812 C 47.3125 69.484375 46.992188 69.273438 46.71875 68.996094 L 43.355469 65.632812 C 43.34375 65.621094 43.332031 65.609375 43.324219 65.597656 L 65.3125 43.609375 L 68.710938 47.007812 C 68.988281 47.285156 69.199219 47.601562 69.347656 47.960938 C 69.496094 48.320312 69.570312 48.695312 69.570312 49.085938 C 69.570312 49.476562 69.496094 49.847656 69.347656 50.207031 C 69.199219 50.570312 68.988281 50.886719 68.710938 51.160156 Z M 68.710938 51.160156 " fill-opacity="1" fill-rule="nonzero"/></g><path fill="#012430" d="M 37.875 9.957031 L 9.671875 38.160156 C 9.101562 38.738281 8.410156 39.03125 7.601562 39.039062 L 7.5625 39.039062 C 6.761719 39.042969 6.082031 38.761719 5.519531 38.191406 L 2.148438 34.828125 C 1.574219 34.25 1.289062 33.554688 1.296875 32.742188 C 1.300781 31.925781 1.589844 31.230469 2.164062 30.65625 L 30.367188 2.449219 C 30.644531 2.175781 30.960938 1.964844 31.320312 1.816406 C 31.679688 1.664062 32.054688 1.589844 32.445312 1.589844 C 32.835938 1.589844 33.207031 1.664062 33.570312 1.816406 C 33.929688 1.964844 34.246094 2.175781 34.519531 2.449219 L 37.890625 5.820312 C 38.164062 6.09375 38.378906 6.410156 38.527344 6.769531 C 38.675781 7.128906 38.746094 7.503906 38.746094 7.890625 C 38.746094 8.28125 38.667969 8.652344 38.519531 9.011719 C 38.367188 9.371094 38.152344 9.683594 37.875 9.957031 Z M 37.875 9.957031 " fill-opacity="1" fill-rule="nonzero"/><path fill="#012430" d="M 68.265625 37.410156 C 68.261719 38.21875 67.976562 38.910156 67.402344 39.480469 L 39.195312 67.683594 C 38.613281 68.265625 37.910156 68.558594 37.085938 68.5625 C 36.285156 68.5625 35.601562 68.28125 35.035156 67.714844 L 31.660156 64.328125 C 31.082031 63.757812 30.796875 63.0625 30.8125 62.25 C 30.816406 61.4375 31.109375 60.746094 31.6875 60.175781 L 59.890625 31.972656 C 60.164062 31.699219 60.480469 31.484375 60.839844 31.335938 C 61.195312 31.1875 61.570312 31.109375 61.957031 31.109375 C 62.347656 31.109375 62.71875 31.179688 63.078125 31.328125 C 63.4375 31.476562 63.753906 31.683594 64.03125 31.957031 L 67.414062 35.34375 C 67.988281 35.910156 68.273438 36.601562 68.265625 37.410156 Z M 68.265625 37.410156 " fill-opacity="1" fill-rule="nonzero"/></svg>

<svg xmlns="http://www.w3.org/2000/svg" width="95" height="95" viewBox="0 0 71.25 71.25"><defs><clipPath id="a"><path d="M43 43h26.766v26.766H43Zm0 0"/></clipPath><clipPath id="b"><path d="M43 43h26.766v26.766H43Zm0 0"/></clipPath></defs><path fill="#012430" d="m13.262 4.55-9.004 9-1.102-1.1a3.19 3.19 0 0 1-.687-3.477q.24-.588.687-1.04L7.648 3.45q.45-.45 1.036-.691.585-.244 1.218-.242c.426 0 .832.078 1.223.242q.585.24 1.031.691ZM20.297 29.59l9-9L49.27 40.559l-9 9.004ZM26.238 4.54 4.254 26.522q-.012-.002-.024-.015L.855 23.133A2.78 2.78 0 0 1 0 21.066q0-1.22.871-2.078L18.703 1.152a2.9 2.9 0 0 1 .95-.636Q20.186.29 20.77.289a2.9 2.9 0 0 1 2.07.848l3.387 3.386ZM66.414 62.215l-4.484 4.492a3.2 3.2 0 0 1-2.258.926 3.177 3.177 0 0 1-2.258-.926l-1.102-1.102 9-9 1.102 1.102q.45.445.691 1.031c.165.39.243.801.243 1.223s-.078.828-.243 1.219q-.24.584-.69 1.035m0 0"/><g clip-path="url(#a)"><path fill="#012430" d="M68.71 51.16 50.88 68.996a2.9 2.9 0 0 1-.957.637q-.54.227-1.125.226-.586.001-1.125-.226-.542-.222-.953-.637l-3.364-3.363a.3.3 0 0 1-.03-.035l21.987-21.989 3.399 3.399q.415.415.637.953.222.54.222 1.125a2.9 2.9 0 0 1-.222 1.121q-.222.544-.637.953m0 0"/></g><path fill="#012430" d="M37.875 9.957 9.672 38.16a2.84 2.84 0 0 1-2.07.88h-.04a2.74 2.74 0 0 1-2.042-.849l-3.372-3.363a2.81 2.81 0 0 1-.851-2.086 2.86 2.86 0 0 1 .867-2.086L30.367 2.45q.416-.41.953-.633.54-.227 1.125-.226c.39 0 .762.074 1.125.226q.54.224.95.633l3.37 3.371a2.9 2.9 0 0 1 .63 3.192c-.153.36-.368.672-.645.945M68.266 37.41a2.83 2.83 0 0 1-.864 2.07L39.195 67.684a2.9 2.9 0 0 1-2.11.879q-1.2 0-2.05-.848l-3.375-3.387a2.74 2.74 0 0 1-.848-2.078 2.83 2.83 0 0 1 .875-2.074l28.204-28.203a2.9 2.9 0 0 1 .949-.637c.355-.148.73-.227 1.117-.227.39 0 .762.07 1.121.22q.539.22.953.628l3.383 3.387a2.76 2.76 0 0 1 .852 2.066M13.262 4.55l-9.004 9-1.102-1.1a3.19 3.19 0 0 1-.687-3.477q.24-.588.687-1.04L7.648 3.45q.45-.45 1.036-.691.585-.244 1.218-.242c.426 0 .832.078 1.223.242q.585.24 1.031.691ZM20.297 29.59l9-9L49.27 40.559l-9 9.004ZM26.238 4.54 4.254 26.522q-.012-.002-.024-.015L.855 23.133A2.78 2.78 0 0 1 0 21.066q0-1.22.871-2.078L18.703 1.152a2.9 2.9 0 0 1 .95-.636Q20.186.29 20.77.289a2.9 2.9 0 0 1 2.07.848l3.387 3.386ZM66.414 62.215l-4.484 4.492a3.2 3.2 0 0 1-2.258.926 3.177 3.177 0 0 1-2.258-.926l-1.102-1.102 9-9 1.102 1.102q.45.445.691 1.031c.165.39.243.801.243 1.223s-.078.828-.243 1.219q-.24.584-.69 1.035m0 0"/><g clip-path="url(#b)"><path fill="#012430" d="M68.71 51.16 50.88 68.996a2.9 2.9 0 0 1-.957.637q-.54.227-1.125.226-.586.001-1.125-.226-.542-.222-.953-.637l-3.364-3.363a.3.3 0 0 1-.03-.035l21.987-21.989 3.399 3.399q.415.415.637.953.222.54.222 1.125a2.9 2.9 0 0 1-.222 1.121q-.222.544-.637.953m0 0"/></g><path fill="#012430" d="M37.875 9.957 9.672 38.16a2.84 2.84 0 0 1-2.07.88h-.04a2.74 2.74 0 0 1-2.042-.849l-3.372-3.363a2.81 2.81 0 0 1-.851-2.086 2.86 2.86 0 0 1 .867-2.086L30.367 2.45q.416-.41.953-.633.54-.227 1.125-.226c.39 0 .762.074 1.125.226q.54.224.95.633l3.37 3.371a2.9 2.9 0 0 1 .63 3.192c-.153.36-.368.672-.645.945M68.266 37.41a2.83 2.83 0 0 1-.864 2.07L39.195 67.684a2.9 2.9 0 0 1-2.11.879q-1.2 0-2.05-.848l-3.375-3.387a2.74 2.74 0 0 1-.848-2.078 2.83 2.83 0 0 1 .875-2.074l28.204-28.203a2.9 2.9 0 0 1 .949-.637c.355-.148.73-.227 1.117-.227.39 0 .762.07 1.121.22q.539.22.953.628l3.383 3.387a2.76 2.76 0 0 1 .852 2.066m0 0"/></svg>
